X: 4430
T: Bonnie Banchory
R: reel
M: 4/4
K: Amajor
AB|:cBAG ABcd|e^def ecAB|cBAG Acec|B2 E2 E2 AB|
cBAG ABcd|e^def eccB|AGBA GEed|1 c2 A2 A2 AB:|2 c2 A2 A2 cd||
|:ecfe dBed|c2 A2 A2 cd|ecfe dBba|g2 e2 e2 cd|
ecfe dBed|cAdc BGcB|AFBA GEed|1 c2 A2 A2 cd:|2 c2 A2 A2 AB||

